X:1
T:Title
%%score { ( 1 3 ) | ( 2 4 ) }
L:1/8
Q:1/4=100
M:4/4
K:Bb
V:1 treble nm="Grand Piano"
V:3 treble 
V:2 bass 
V:4 bass 
V:1
 [DF][DF][DF][DF] [EG]2 [EA]2 | [DB]4 [DF]4 | [DF][DF][DG][DB] [FA]2 [FB]2 | c6 z2 | %4
w: C.~E.~Hunter * * * * *||||
 cccc d2 [FB]2 | [GB]4 [EG]4 | [DF][DF][DF][DB] [EA]2 [=EG]2 | F6 z2 | %8
w: ||||
 [DF][DG][DA][DB] [Ec]2 [Fd]2 | [DB]4 [DF]4 | FGAB c2 d2 | [Ge]6 z2 | dddc B2 [F_AB]2 | [EGB]4 G4 | %14
w: ||||||
 FGAB d2 c2 | [DB]6 z2 |] %16
w: ||
V:2
 [B,,B,][B,,B,][B,,B,][B,,B,] [E,B,]2 [C,F,]2 | [B,,F,]4 [B,,B,]4 | %2
 [B,,B,][B,,B,][B,,B,][B,,F,] [C,F,]2 [D,B,]2 | [F,A,F]6 z2 | %4
 [F,A,F][F,A,F][F,A,F][F,A,F] [B,F]2[K:bass] [D,B,]2 | [E,B,]4 [E,B,]4 | %6
 [B,,B,][B,,B,][B,,B,][B,,F,] [C,F,]2 [C,B,]2 | F,2- [F,-B,]2 [F,C]2 z2 | %8
 [B,,B,][B,,B,][B,,B,][B,,B,] [B,,B,]2 [B,,B,]2 | [B,,F,]4 [B,,B,]4 | %10
 [F,A,E][F,B,E][F,CE][F,B,D][K:treble] [F,A,F]2 [B,F]2 | [E,B,]6 z2 | %12
 [B,F][B,F][B,F][B,EF] [B,DF]2[K:bass] D,2 | E,4 [E,B,E]4 | %14
 [F,A,E][F,B,E][F,CE][F,B,D] [F,B,F]2 [F,A,E]2 | [B,,B,]6 z2 |] %16
V:3
 x8 | x8 | x8 | x8 | x8 | x8 | x8 | z2 D2 E2 z2 | x8 | x8 | x8 | x8 | x8 | x8 | x8 | x8 |] %16
V:4
 x8 | x8 | x8 | x8 | x6[K:bass] x2 | x8 | x8 | A,2 z2 z4 | x8 | x8 | x4[K:treble] x4 | x8 | %12
 x6[K:bass] x2 | x8 | x8 | x8 |] %16

